elements/rpg-character/lib/hat/bunny.svg

<svg xmlns="http://www.w3.org/2000/svg" fill="none" width="113" height="142" viewBox="0 0 113 142"><path d="M32 37V22h-5v25h-5v10H7V37h5V22h5V12h5V7h10v5h10v5h5v20H32Z" fill="#E7E7E7"/><path d="M22 2v5h20v10h10v20H32V22h5v-5h-5v5h-5v35H7v5h15V47h10v-5h15V12H32V2H22Z" fill="#000"/><path d="M17 7h5v5H12v25H7v20H2V37h5V22h10V7Z" fill="#000"/><path d="M37 27v-5h-5v15h10V27h-5Z" fill="#D8AAAA"/><path d="M78 37V22h5v25h5v10h15V37h-5V22h-5V12h-5V7H78v5H68v5h-5v20h15Z" fill="#E7E7E7"/><path d="M88 2v5H68v10H58v20h20V22h-5v-5h5v5h5v35h20v5H88V47H78v-5H63V12h15V2h10Z" fill="#000"/><path d="M93 7h-5v5h10v25h5v20h5V37h-5V22H93V7Z" fill="#000"/><path d="M73 27v-5h5v15H68V27h5Z" fill="#D8AAAA"/><path d="M17 47h5V22h5v25h-5v10h-5V47Zm20-20V12h5v5h5v20h-5V27h-5Zm36 0V12h-5v5h-5v20h5V27h5Zm20 10V22h5v15h5v20h-5V37h-5Z" fill="#D5D5D5"/><path d="M12 37v20H7V37h5V22h5v15h-5Zm10-25h-5v5h5v-5Zm61 10h5v25h5v10h-5V47h-5V22Z" fill="#EBEBEB"/></svg>

<svg width="113" height="142" viewBox="0 0 113 142" fill="none" xmlns="http://www.w3.org/2000/svg">
<path d="M32 37V22H27V47H22V57H7V37H12V22H17V12H22V7H32V12H42V17H47V37H32Z" fill="#E7E7E7"/>
<path d="M22 2V7H32H42V12V17H52V37H42H32V22H37V17H32V22H27V47V57H7V62H22V57V47H32V42H47V37V17V12H32V2H22Z" fill="black"/>
<path d="M17 7H22V12H12V22V37H7V57H2V37H7V22H17V12V7Z" fill="black"/>
<path d="M37 27V22H32V37H42V27H37Z" fill="#D8AAAA"/>
<path d="M78 37V22H83V47H88V57H103V37H98V22H93V12H88V7H78V12H68V17H63V37H78Z" fill="#E7E7E7"/>
<path d="M88 2V7H78H68V12V17H58V37H68H78V22H73V17H78V22H83V47V57H103V62H88V57V47H78V42H63V37V17V12H78V2H88Z" fill="black"/>
<path d="M93 7H88V12H98V22V37H103V57H108V37H103V22H93V12V7Z" fill="black"/>
<path d="M73 27V22H78V37H68V27H73Z" fill="#D8AAAA"/>
<path d="M17 47H22V22H27V47H22V57H17V52V47Z" fill="#D5D5D5"/>
<path d="M37 27V17V12H42V17H47V37H42V27H37Z" fill="#D5D5D5"/>
<path d="M73 27V12H68V17H63V37H68V27H73Z" fill="#D5D5D5"/>
<path d="M93 37V22H98V37H103V57H98V37H93Z" fill="#D5D5D5"/>
<path d="M12 37V57H7V37H12V22H17V37H12Z" fill="#EBEBEB"/>
<path d="M22 12H17V17H22V12Z" fill="#EBEBEB"/>
<path d="M83 22H88V47H93V57H88V47H83V22Z" fill="#EBEBEB"/>
</svg>
